X:1
T: Rogues' Gallery
T: 32R 3C x 8 (Iain Boyd)
P: The Highland Lassie
C: from RSCDS Scottish Ceilidh Music 1
M: C
C: arr. T. Traub 3-13-2005
R: reel
L: 1/4
K: G
|: D |"G"G G G A/B/|G G G A/B/|"C"c > B A G|"D"F/G/A/G/ F/D/E/F/|"G"G G G A/B/|
"Em"G G G A/B/|"C"c > d "D"e/d/e/f/|"G"g2 g :||: d|"G"g > d B > d| "C"c c c/B/c/e/|
"A"a > e ^c > e|"D"d d d e/f/|"G"g > d B > d|"C"c c c e|"D" d B c A|"G"G2 G :|
